X:1
T:James Gibb editions
T:Psalm 119, pt 2 (Becker) - Schütz
%%score [ ( 1 2 ) ( 3 4 ) ]
L:1/8
Q:1/4=98
M:2/2
K:F
V:1 treble nm="Soprano Alto"
V:2 treble 
V:3 bass nm="Tenor Bass"
V:4 bass 
V:1
"^Cornelius Becker\n(1561-1604)""^Psalm 119, part 2, SWV 218""^Heinrich Schütz\n(1585-1672)" A2 | %1
w: ~Tu|
w: und|
 c2 B2 A2 G2 | F4 D2 D2 | F2 F2 G2 G2 | A6 :|[M:2/2] A2 | B2 B2 G2 G2 | A2 A2 F2 F2 | G2 A2 B2 B2 | %9
w: wohl, Herr, dei- nem|Knech- te, daß|ich mög le- ben|fort|er-|öff- ne mir die|Au- gen mein, zu|schau- en gro- ße|
w: hal- ten schlecht und|rech- te dein|se- lig- ma- chend|Wort,|||||
 A4 G2 B2 | A4 d4 | (c3 B A2) G2 | F6 |] %13
w: Wun- der an|dem Ge-|set\- * * ze|dein.|
w: ||||
V:2
 F2 | F2 D2 F2 E2 | D4 B,2 B,2 | D2 D2 E2 D2 | E6 :|[M:2/2] ^F2 | G2 G2 E2 E2 | F2 F2 D2 D2 | %8
 E2 ^F2 G2 D2 | D4 D2 D2 | D4 F4 | (F3 D F2) E2 | F6 |] %13
V:3
 C2 | A,2 B,2 C2 C2 | A,4 G,2 G,2 | A,2 A,2 C2 D2 | ^C6 :| %5
[M:2/2]"^10. Ich bin ein Gast auf Erden verbirg dich nicht vor mir,\ndein G'bot laß mir kund Werden, daß ich wandle vor dir.\nNach deinen Rechten allezeit mein Seel so sehr verlanget,\ndaß sie groß Schmerzen leid't.\n\n13. Mein Seel ist sehr betrübet von wegen meiner Sünd,\ndein Wort reichen Trost gibet, daß ich Erquickung find't;\nmein Missetat bekenn ich dir, du läßt dein Gnad drob walten,\nleitest mich fur und für.\n\n14. Lehr mich den Weg zum Leben, dein Gnad mich unterweis,\nso will ich Zeugnis geben von deiner Wunder Preis.\nVor Gram mein Herz im Leib verschmacht, sei du mein Kraft und Stärke,\nwie du mir zugesagt.\n\n15. Behüte mich vor Sünden, vor Irrtum mich bewahr,\ndein G'setz wollst du mir künden, dein Wort lauter und klar.\nIch hab der Wahrheit Weg erwählt, zu halten deine Rechte\nhab ich mir vorgestellt.\n\n20. Wend ab mein Herz und Sinne von aller falschen Lehr,\nlaß mich die Kraft empfinden deins Worts je lang'r je mehr,\ndurch deinen Geist bekräftig mich, daß ich dein Wort fest halte,\nvon Herzen fürchte dich." D2 | %6
 D2 D2 C2 C2 | C2 C2 B,2 A,2 | C2 C2 D2 G,2- | G,2 ^F,2 G,2 G,2 | F,4 B,4 | (A,3 B, C2) C2 | C6 |] %13
V:4
 F,2 | F,2 G,2 F,2 C,2 | D,4 G,,2 G,,2 | D,2 D,2 C,2 B,,2 | A,,6 :|[M:2/2] D,2 | G,2 G,2 C,2 C,2 | %7
 F,2 F,2 B,,2 D,2 | C,2 A,,2 G,,2 G,,2 | D,4 G,,2 G,,2 | D,4 B,,4 | (F,3 G, F,2) C,2 | F,6 |] %13

